X:1
T: Charlie Hardie
C: J. Scott Skinner
R:Reel
Q: 232
K:E
M:4/4
L:1/8
|:c|Be Ge Be Ge|cf Af cf Af|eg Bg eg Bg|ab af ge ec|
Be Ge Be Ge|cf Af cf Af|eg Bg ef ge|ab c'd' e'e ea|
gb ef ga bg|fb Bc de fa|gb ef ga bg|ab c'd' e'e ea|
gb ef ga bg|fb Bc de fa|gb ag fe dc|BA GF GE E:|
